X:105
%%etbk:tnset id:37,pos:2,rep:3x,ant:
%%etbk:wsite http://www.thesession.org/tunes/display/718
%%etbk:pldat 2016-07-12T16:42,2016-03-20T15:10,2016-03-17T18:43,2016-01-13T17:06,2015-12-29T16:12,2015-12-23T16:38,2015-12-21T18:56,2015-11-29T15:08,2015-02-06T17:59,2014-12-28T14:23,2014-12-14T16:10,2014-09-08T18:22,2014-05-13T18:52,2014-05-02T17:30,2014-04-27T12:52,2014-04-07T19:23,2014-03-26T17:41,2014-03-25T16:54,2014-02-16T14:10,2014-02-06T18:10,2013-12-11T18:43,2013-09-27T16:52,2013-05-01T16:28
T: George White's Favorite
Z: Piano Box Version by Martin Fleischmann
H: Created 2013-02-19 /  Last Modified 2014-03-26
M: 4/4
L: 1/8
R: reel
K: Gmaj
|: "em"!5!e!3!B!2!B!3!B !5!e!3!B!4!dB | "D"!2!A!1!G!2!AB !1!G!2!E!1!D!2!E | "G"!1!G!3!B!2!B!3!B !4!d!3!B!2!B!3!B | !5!eBdB "D"!2!A2Bd |
"em"!5!e!3!B!2!B!3!B !5!e!3!B!4!dB | "D"!2!A!1!G!2!AB !1!G!2!E!1!D!2!E | "G"!1!G2!2!B!3!d !5!g!4!e!3!d!2!B | "D"!1!A!2!A!1!A!2!B "G"!1!G4 :||
|: "G"!3!gede !3!gaba | !3!g!2!g!3!ga !3!ge!1!d!2!B | !1!de!3!ga !5!bgag | "D"!1!e!4!aag aaga |
"G"!5!b!3!g!2!eg !1!d2de | !3!gede !3!gaba | !3!g{a}!3!g!3!gd !2!e!4!g!1!d!3!B | "D"!2!AGAB "G"!1!G4 :||


